X: 34502
T: Right Side
R: jig
M: 6/8
K: Amajor
B|:cAA dAA|cAd cAB|cAA dAA|cAd FAE|
cAA dAA|cAd cAB|cee ecA|1 BAc dcB:|2 BAc d/e/fg||
aAA cBA|dDf baf|eaa Ace|dBc dcB|
aAA cBA|dDf fed|c/d/ed BAB|Bcd efg|
aAA cBA|dDf baf|eaa Ace|dBc dcB|
caa caA|dDf fed|c/d/ed BAB|cAA A3||

